_site/images/verification-page/platform-icon.svg

<svg fill="none" height="30" viewBox="0 0 30 30" width="30" xmlns="http://www.w3.org/2000/svg"><rect fill="#65a2fd" height="30" rx="7" width="30"/><g fill="#fff"><path clip-rule="evenodd" d="m8.36704 6.00049h.81155c1.30521 0 2.36701 1.06185 2.36701 2.36703v12.57908c0 1.3052-1.0618 2.3671-2.36701 2.3671h-.81155c-1.30519 0-2.36704-1.0619-2.36704-2.3671v-12.57908c0-1.30518 1.06185-2.36703 2.36704-2.36703zm.81112 15.96011c.55937 0 1.01444-.455 1.01444-1.0144v-12.5791c0-.55937-.45507-1.01445-1.01444-1.01445h-.81155c-.55936 0-1.01444.45508-1.01444 1.01445v12.5791c0 .5594.45508 1.0144 1.01444 1.0144z" fill-rule="evenodd"/><path d="m9.17859 5.75049h-.81155v.5h.81155zm2.61701 2.61703c0-1.44325-1.1738-2.61703-2.61701-2.61703v.5c1.16711 0 2.11701.94992 2.11701 2.11703zm0 12.57908v-12.57908h-.5v12.57908zm-2.61701 2.6171c1.44321 0 2.61701-1.1738 2.61701-2.6171h-.5c0 1.1671-.9499 2.1171-2.11701 2.1171zm-.81155 0h.81155v-.5h-.81155zm-2.61704-2.6171c0 1.4433 1.17378 2.6171 2.61704 2.6171v-.5c-1.16712 0-2.11704-.95-2.11704-2.1171zm0-12.57908v12.57908h.5v-12.57908zm2.61704-2.61703c-1.44326 0-2.61704 1.17378-2.61704 2.61703h.5c0-1.16711.94992-2.11703 2.11704-2.11703zm1.57557 15.19571c0 .4213-.34315.7644-.76445.7644v.5c.69744 0 1.26444-.567 1.26444-1.2644zm0-12.5791v12.5791h.49999v-12.5791zm-.76445-.76445c.4213 0 .76445.34315.76445.76445h.49999c0-.69744-.567-1.26445-1.26444-1.26445zm-.81155 0h.81155v-.5h-.81155zm-.76444.76445c0-.4213.34315-.76445.76444-.76445v-.5c-.69744 0-1.26444.56701-1.26444 1.26445zm0 12.5791v-12.5791h-.5v12.5791zm.76444.7644c-.42129 0-.76444-.3431-.76444-.7644h-.5c0 .6974.567 1.2644 1.26444 1.2644zm.81155 0h-.81155v.5h.81155z"/><path clip-rule="evenodd" d="m15.3319 6h5.6132c1.3052 0 2.3671 1.06185 2.3671 2.36704v.81155c0 1.30521-1.0619 2.36701-2.3671 2.36701h-5.6132c-1.3052 0-2.3671-1.0618-2.3671-2.36701v-.81155c0-1.30519 1.0619-2.36704 2.3671-2.36704zm5.6138 4.1926c.5594 0 1.0145-.45507 1.0145-1.01444v-.81155c0-.55936-.4551-1.01444-1.0145-1.01444h-5.6132c-.5594 0-1.0145.45508-1.0145 1.01444v.81155c0 .55937.4551 1.01444 1.0145 1.01444z" fill-rule="evenodd"/><path d="m20.9451 5.75h-5.6132v.5h5.6132zm2.6171 2.61704c0-1.44326-1.1738-2.61704-2.6171-2.61704v.5c1.1671 0 2.1171.94992 2.1171 2.11704zm0 .81155v-.81155h-.5v.81155zm-2.6171 2.61701c1.4433 0 2.6171-1.1738 2.6171-2.61701h-.5c0 1.16711-.95 2.11701-2.1171 2.11701zm-5.6132 0h5.6132v-.5h-5.6132zm-2.6171-2.61701c0 1.44321 1.1738 2.61701 2.6171 2.61701v-.5c-1.1671 0-2.1171-.9499-2.1171-2.11701zm0-.81155v.81155h.5v-.81155zm2.6171-2.61704c-1.4433 0-2.6171 1.17378-2.6171 2.61704h.5c0-1.16712.95-2.11704 2.1171-2.11704zm6.3783 3.42816c0 .4213-.3432.76445-.7645.76445v.49999c.6974 0 1.2645-.567 1.2645-1.26444zm0-.81155v.81155h.5v-.81155zm-.7645-.76444c.4213 0 .7645.34315.7645.76444h.5c0-.69744-.5671-1.26444-1.2645-1.26444zm-5.6132 0h5.6132v-.5h-5.6132zm-.7645.76444c0-.42129.3432-.76444.7645-.76444v-.5c-.6975 0-1.2645.567-1.2645 1.26444zm0 .81155v-.81155h-.5v.81155zm.7645.76445c-.4213 0-.7645-.34315-.7645-.76445h-.5c0 .69744.567 1.26444 1.2645 1.26444zm5.6132 0h-5.6132v.49999h5.6132z"/><path d="m20.9451 12.9998h-5.6132c-1.3052 0-2.3671 1.0618-2.3671 2.367v5.5794c0 1.3052 1.0619 2.3671 2.3671 2.3671h5.6132c1.3052 0 2.3671-1.0619 2.3671-2.3671 0-.3735-.3028-.6763-.6763-.6763s-.6763.3028-.6763.6763c0 .5594-.4551 1.0145-1.0145 1.0145h-5.6132c-.5594 0-1.0145-.4551-1.0145-1.0145v-5.5794c0-.5594.4551-1.0145 1.0145-1.0145h5.6132c.5594 0 1.0145.4551 1.0145 1.0145v2.198c0 .3735.3028.6762.6763.6762s.6763-.3027.6763-.6762v-2.198c0-1.3052-1.0619-2.367-2.3671-2.367z" stroke="#fff" stroke-width=".5"/></g></svg>

<svg width="30" height="30" viewBox="0 0 30 30" fill="none" xmlns="http://www.w3.org/2000/svg">
<rect width="30" height="30" rx="7" fill="#65A2FD"/>
<path fill-rule="evenodd" clip-rule="evenodd" d="M8.36704 6.00049H9.17859C10.4838 6.00049 11.5456 7.06234 11.5456 8.36752V20.9466C11.5456 22.2518 10.4838 23.3137 9.17859 23.3137H8.36704C7.06185 23.3137 6 22.2518 6 20.9466V8.36752C6 7.06234 7.06185 6.00049 8.36704 6.00049ZM9.17816 21.9606C9.73753 21.9606 10.1926 21.5056 10.1926 20.9462V8.3671C10.1926 7.80773 9.73753 7.35265 9.17816 7.35265H8.36661C7.80725 7.35265 7.35217 7.80773 7.35217 8.3671V20.9462C7.35217 21.5056 7.80725 21.9606 8.36661 21.9606H9.17816Z" fill="white"/>
<path d="M9.17859 5.75049H8.36704V6.25049H9.17859V5.75049ZM11.7956 8.36752C11.7956 6.92427 10.6218 5.75049 9.17859 5.75049V6.25049C10.3457 6.25049 11.2956 7.20041 11.2956 8.36752H11.7956ZM11.7956 20.9466V8.36752H11.2956V20.9466H11.7956ZM9.17859 23.5637C10.6218 23.5637 11.7956 22.3899 11.7956 20.9466H11.2956C11.2956 22.1137 10.3457 23.0637 9.17859 23.0637V23.5637ZM8.36704 23.5637H9.17859V23.0637H8.36704V23.5637ZM5.75 20.9466C5.75 22.3899 6.92378 23.5637 8.36704 23.5637V23.0637C7.19992 23.0637 6.25 22.1137 6.25 20.9466H5.75ZM5.75 8.36752V20.9466H6.25V8.36752H5.75ZM8.36704 5.75049C6.92378 5.75049 5.75 6.92427 5.75 8.36752H6.25C6.25 7.20041 7.19992 6.25049 8.36704 6.25049V5.75049ZM9.94261 20.9462C9.94261 21.3675 9.59946 21.7106 9.17816 21.7106V22.2106C9.8756 22.2106 10.4426 21.6436 10.4426 20.9462H9.94261ZM9.94261 8.3671V20.9462H10.4426V8.3671H9.94261ZM9.17816 7.60265C9.59946 7.60265 9.94261 7.9458 9.94261 8.3671H10.4426C10.4426 7.66966 9.8756 7.10265 9.17816 7.10265V7.60265ZM8.36661 7.60265H9.17816V7.10265H8.36661V7.60265ZM7.60217 8.3671C7.60217 7.9458 7.94532 7.60265 8.36661 7.60265V7.10265C7.66917 7.10265 7.10217 7.66966 7.10217 8.3671H7.60217ZM7.60217 20.9462V8.3671H7.10217V20.9462H7.60217ZM8.36661 21.7106C7.94532 21.7106 7.60217 21.3675 7.60217 20.9462H7.10217C7.10217 21.6436 7.66917 22.2106 8.36661 22.2106V21.7106ZM9.17816 21.7106H8.36661V22.2106H9.17816V21.7106Z" fill="white"/>
<path fill-rule="evenodd" clip-rule="evenodd" d="M15.3319 6H20.9451C22.2503 6 23.3122 7.06185 23.3122 8.36704V9.17859C23.3122 10.4838 22.2503 11.5456 20.9451 11.5456H15.3319C14.0267 11.5456 12.9648 10.4838 12.9648 9.17859V8.36704C12.9648 7.06185 14.0267 6 15.3319 6ZM20.9457 10.1926C21.5051 10.1926 21.9602 9.73753 21.9602 9.17816V8.36661C21.9602 7.80725 21.5051 7.35217 20.9457 7.35217H15.3325C14.7731 7.35217 14.318 7.80725 14.318 8.36661V9.17816C14.318 9.73753 14.7731 10.1926 15.3325 10.1926H20.9457Z" fill="white"/>
<path d="M20.9451 5.75H15.3319V6.25H20.9451V5.75ZM23.5622 8.36704C23.5622 6.92378 22.3884 5.75 20.9451 5.75V6.25C22.1122 6.25 23.0622 7.19992 23.0622 8.36704H23.5622ZM23.5622 9.17859V8.36704H23.0622V9.17859H23.5622ZM20.9451 11.7956C22.3884 11.7956 23.5622 10.6218 23.5622 9.17859H23.0622C23.0622 10.3457 22.1122 11.2956 20.9451 11.2956V11.7956ZM15.3319 11.7956H20.9451V11.2956H15.3319V11.7956ZM12.7148 9.17859C12.7148 10.6218 13.8886 11.7956 15.3319 11.7956V11.2956C14.1648 11.2956 13.2148 10.3457 13.2148 9.17859H12.7148ZM12.7148 8.36704V9.17859H13.2148V8.36704H12.7148ZM15.3319 5.75C13.8886 5.75 12.7148 6.92378 12.7148 8.36704H13.2148C13.2148 7.19992 14.1648 6.25 15.3319 6.25V5.75ZM21.7102 9.17816C21.7102 9.59946 21.367 9.94261 20.9457 9.94261V10.4426C21.6431 10.4426 22.2102 9.8756 22.2102 9.17816H21.7102ZM21.7102 8.36661V9.17816H22.2102V8.36661H21.7102ZM20.9457 7.60217C21.367 7.60217 21.7102 7.94532 21.7102 8.36661H22.2102C22.2102 7.66917 21.6431 7.10217 20.9457 7.10217V7.60217ZM15.3325 7.60217H20.9457V7.10217H15.3325V7.60217ZM14.568 8.36661C14.568 7.94532 14.9112 7.60217 15.3325 7.60217V7.10217C14.635 7.10217 14.068 7.66917 14.068 8.36661H14.568ZM14.568 9.17816V8.36661H14.068V9.17816H14.568ZM15.3325 9.94261C14.9112 9.94261 14.568 9.59946 14.568 9.17816H14.068C14.068 9.8756 14.635 10.4426 15.3325 10.4426V9.94261ZM20.9457 9.94261H15.3325V10.4426H20.9457V9.94261Z" fill="white"/>
<path d="M20.9451 12.9998H15.3319C14.0267 12.9998 12.9648 14.0616 12.9648 15.3668V20.9462C12.9648 22.2514 14.0267 23.3133 15.3319 23.3133H20.9451C22.2503 23.3133 23.3122 22.2514 23.3122 20.9462C23.3122 20.5727 23.0094 20.2699 22.6359 20.2699C22.2624 20.2699 21.9596 20.5727 21.9596 20.9462C21.9596 21.5056 21.5045 21.9607 20.9451 21.9607H15.3319C14.7725 21.9607 14.3174 21.5056 14.3174 20.9462V15.3668C14.3174 14.8074 14.7725 14.3523 15.3319 14.3523H20.9451C21.5045 14.3523 21.9596 14.8074 21.9596 15.3668V17.5648C21.9596 17.9383 22.2624 18.241 22.6359 18.241C23.0094 18.241 23.3122 17.9383 23.3122 17.5648V15.3668C23.3122 14.0616 22.2503 12.9998 20.9451 12.9998Z" fill="white" stroke="white" stroke-width="0.5"/>
</svg>
